!!!OTL: S SCHWIMME ZWEI FISCHLE IM BODESEE
!!!ARE: Europa, Mitteleuropa, Deutschland, Schwaben
!!!SCT: E1035
!!!YEM: Copyright 1995, estate of Helmut Schaffrath.
**kern
*ICvox
*Ivox
*M3/8
*k[b-]
*F:
=1
{8a
8.a
16f
=2
8g
8.g
16e
=3
8f
16f
16g
8f}
=4
{8cc
16cc
16dd
8cc
=5
8g
8a
8bn
=6
4.cc}
=7
{8a
8.a
16f
=8
8g
8.g
16e
=9
8f
8cc
8ff}
=10
{8dd
8.b-
16g
=11
8g
8.f
16e
=12
4f
8r}
==
!!!AGN: Tanz - Lied
!!!ONB: ESAC (Essen Associative Code) Database: ERK3
!!!AMT: simple triple
!!!AIN: vox
!!!EED: Helmut Schaffrath
!!!EEV: 1.0
*-
